icons/download.svg

<svg width="24" height="24" viewBox="0 0 24 24" fill="none" xmlns="http://www.w3.org/2000/svg">
<path fill-rule="evenodd" clip-rule="evenodd" d="M12 3C12.5523 3 13 3.44772 13 4V12.5858L15.2929 10.2929C15.6834 9.90237 16.3166 9.90237 16.7071 10.2929C17.0976 10.6834 17.0976 11.3166 16.7071 11.7071L12.7071 15.7071C12.3166 16.0976 11.6834 16.0976 11.2929 15.7071L7.29289 11.7071C6.90237 11.3166 6.90237 10.6834 7.29289 10.2929C7.68342 9.90237 8.31658 9.90237 8.70711 10.2929L11 12.5858V4C11 3.44772 11.4477 3 12 3ZM3 12C3.55228 12 4 12.4477 4 13V19H20V13C20 12.4477 20.4477 12 21 12C21.5523 12 22 12.4477 22 13V20C22 20.5523 21.5523 21 21 21H3C2.44772 21 2 20.5523 2 20V13C2 12.4477 2.44772 12 3 12Z" fill="black"/>
</svg>

<svg
  width="24"
  height="24"
  viewBox="0 0 24 24"
  xmlns="http://www.w3.org/2000/svg"
>
  <path
    fill-rule="evenodd"
    clip-rule="evenodd"
    d="M12 3a1 1 0 0 1 1 1v8.586l2.293-2.293a1 1 0 1 1 1.414 1.414l-4 4a1 1 0 0 1-1.414 0l-4-4a1 1 0 1 1 1.414-1.414L11 12.586V4a1 1 0 0 1 1-1zm-9 9a1 1 0 0 1 1 1v6h16v-6a1 1 0 1 1 2 0v7a1 1 0 0 1-1 1H3a1 1 0 0 1-1-1v-7a1 1 0 0 1 1-1z"
  />
</svg>
